X: 231909
T: Whiskey in the Jar HP
S: "Roche Collection of Traditional Irish Music" [II/12/217]
L: 1/8
M: 4/4
R: hornpipe
K: A
E2 | ABcA BAFE | Acea f2 fg | agab afec | BcBA F2 E2 |
ABcA BAFE | Acea f2 fg | agaf efec | BdcB A2 :|
cd | eaga bafe | fagb a3e | fgae fecA | BcBA F2 E2 |
ABcA BAFE | Acea f2 fg | agaf efec | BdcB A2 :|
